svgs/surveyheart.svg

<svg xmlns="http://www.w3.org/2000/svg" viewBox="0 0 192 192"><path d="M89.056 175.568c-5.456-1.348-10.415-3.582-14.316-6.449-4.607-3.386-31.802-41.752-33.938-47.878-.768-2.205-1.102-6.629-.741-9.831 2.331-20.686 31.024-30.54 51.195-17.582l4.763 3.06 4.703-3.192c6.502-4.412 13.869-6.154 22.972-5.432 17.77 1.411 30.783 15.331 28.033 29.989-.48 2.557-3.884 9.036-7.566 14.398-24.688 35.958-24.018 35.13-31.408 38.858-6.866 3.464-18.228 5.41-23.697 4.059Zm-8.081-99.921c-8.16-4.067-13.81-10.657-16.305-19.019-2.385-7.997-2.371-11.66.073-18.834 9.041-26.535 46.501-29.456 59.092-4.609 8.47 16.715 1.004 36.487-16.546 43.819-7.443 3.11-18.492 2.54-26.314-1.357Z"/></svg>

<svg
    xmlns="http://www.w3.org/2000/svg"
    viewBox="0 0 192 192"
    id="vector">
    <path
        id="path"
        d="M 89.056 175.568 C 83.6 174.22 78.641 171.986 74.74 169.119 C 70.133 165.733 42.938 127.367 40.802 121.241 C 40.034 119.036 39.7 114.612 40.061 111.41 C 42.392 90.724 71.085 80.87 91.256 93.828 L 96.019 96.888 L 100.722 93.696 C 107.224 89.284 114.591 87.542 123.694 88.264 C 141.464 89.675 154.477 103.595 151.727 118.253 C 151.247 120.81 147.843 127.289 144.161 132.651 C 119.473 168.609 120.143 167.781 112.753 171.509 C 105.887 174.973 94.525 176.919 89.056 175.568 Z M 80.975 75.647 C 72.815 71.58 67.165 64.99 64.67 56.628 C 62.285 48.631 62.299 44.968 64.743 37.794 C 73.784 11.259 111.244 8.338 123.835 33.185 C 132.305 49.9 124.839 69.672 107.289 77.004 C 99.846 80.114 88.797 79.544 80.975 75.647 Z"
        fill="none"
        stroke="#000000"
        stroke-width="12"/>
</svg>
